icons/lines/wallet-search.svg

<svg xmlns="http://www.w3.org/2000/svg" width="24" height="24" viewBox="0 0 24 24" fill="none" stroke="currentColor" stroke-width="2" stroke-linecap="round" stroke-linejoin="round" >
  <path d="M12 22H17C20 22 22 20 22 17V12C22 9.3 20.3 7.3 17.8 7C17.6 7 17.3 7 17 7H7C6.7 7 6.5 6.99998 6.2 7.09998C3.6 7.39998 2 9.3 2 12C2 12.3 2 12.7 2 13"/>
  <path d="M17.8002 7.00001C17.6002 7.00001 17.3002 7.00001 17.0002 7.00001H7.0002C6.7002 7.00001 6.5002 6.99999 6.2002 7.09999C6.3002 6.79999 6.5002 6.6 6.8002 6.3L10.0002 3.00001C11.4002 1.60001 13.6002 1.60001 15.0002 3.00001L16.8002 4.8C17.4002 5.4 17.7002 6.20001 17.8002 7.00001Z"/>
  <path d="M22 12.5H19C17.9 12.5 17 13.4 17 14.5C17 15.6 17.9 16.5 19 16.5H22"/>
  <path d="M5.80157 21.4C7.57157 21.4 9.00156 19.97 9.00156 18.2C9.00156 16.43 7.57157 15 5.80157 15C4.03157 15 2.60156 16.43 2.60156 18.2C2.60156 19.97 4.03157 21.4 5.80157 21.4Z"/>
  <path d="M2 22L3 21"/>
  </svg>

<svg xmlns="http://www.w3.org/2000/svg" width="24" height="24" viewBox="0 0 24 24" fill="none" stroke="currentColor" stroke-width="2" stroke-linecap="round" stroke-linejoin="round">
  <path d="M12 22h5c3 0 5-2 5-5v-5c0-2.7-1.7-4.7-4.2-5H7c-.3 0-.5 0-.8.1C3.6 7.4 2 9.3 2 12v1" />
  <path d="m2 22 1-1" />
  <path d="M22 12.5h-3a2 2 0 0 0 0 4h3" />
  <path d="M7 7c-.3 0-.5 0-.8.1.1-.3.3-.5.6-.8L10 3a3.5 3.5 0 0 1 5 0l1.8 1.8c.6.6.9 1.4 1 2.2" />
  <circle cx="5.802" cy="18.2" r="3.197" />
</svg>
